assets/svg/icon-ui-redpoint-folder-blue.svg

<?xml version="1.0" encoding="UTF-8" standalone="no"?>
<svg width="44px" height="32px" viewBox="0 0 44 32" version="1.1" xmlns="http://www.w3.org/2000/svg" xmlns:xlink="http://www.w3.org/1999/xlink">
    <!-- Generator: Sketch 3.8.3 (29802) - http://www.bohemiancoding.com/sketch -->
    <title>blue/icon-ui-redpoint-folder-blue</title>
    <desc>Created with Sketch.</desc>
    <defs></defs>
    <g id="blue,-base" stroke="none" stroke-width="1" fill="none" fill-rule="evenodd">
        <g id="icons,-utility-(blue)" transform="translate(-531.000000, -897.000000)" fill="#1055FF">
            <g id="blue/icon-ui-redpoint-folder-blue" transform="translate(531.000000, 897.000000)">
                <g id="Fill-98">
                    <g id="PaaS">
                        <g id="redpoint_v2.3_2015-11-13_Kris">
                            <g id="Features">
                                <g id="2-copy">
                                    <path d="M2.14039058,7.68 C0.0128723828,7.68 -0.0549896961,9.18490141 0.0166722757,10.4279437 L1.10917932,29.7464788 C1.18084129,30.9895212 2.24765819,32 3.49250326,32 L39.5488413,32 C40.7936864,32 41.8605033,30.9859155 42.24,29.7428732 L43.52,10.4310986 C43.0963342,9.18850705 42.8928723,7.68 40.900954,7.68 L2.14039058,7.68 L2.14039058,7.68 Z M3.42039058,8.96 C1.29287238,8.96 1.29287238,9.6 1.29667228,10.4279437 L2.38917932,28.4664788 C2.57287238,30.72 2.57287238,30.72 4.77250326,30.72 L38.2688413,30.72 C40.3328723,30.72 40.3328723,30.08 40.96,28.4628732 L42.24,10.4310986 C41.6128723,9.6 41.6128723,8.96 39.620954,8.96 L3.42039058,8.96 L3.42039058,8.96 Z M40.9728723,6.4 C40.6483653,4.82614085 40.3328723,3.84 39.8839709,3.84 L18.5476329,3.84 C17.8012667,3.6056338 17.9328723,2.24 17.9328723,2.24 C17.2928723,0 17.2928723,0 14.9419991,0 L4.88228083,0 C2.57287238,0 2.57287238,0 2.57287238,2.24 L2.57287238,6.4 C3.09568928,6.40630986 40.9728723,6.4 40.9728723,6.4 L40.9728723,6.4 Z" id="Fill-98"></path>
                                </g>
                            </g>
                        </g>
                    </g>
                </g>
            </g>
        </g>
    </g>
</svg>

<svg width="44" height="32" viewBox="0 0 44 32" xmlns="http://www.w3.org/2000/svg"><title>blue/icon-ui-redpoint-folder-blue</title><path d="M2.14 7.68C.013 7.68-.055 9.185.017 10.428l1.092 19.318C1.181 30.99 2.248 32 3.493 32h36.056c1.245 0 2.312-1.014 2.691-2.257l1.28-19.312c-.424-1.242-.627-2.751-2.619-2.751H2.141zm1.28 1.28c-2.127 0-2.127.64-2.123 1.468l1.092 18.038c.184 2.254.184 2.254 2.384 2.254h33.496c2.064 0 2.064-.64 2.691-2.257l1.28-18.032c-.627-.831-.627-1.471-2.619-1.471h-36.2zM40.973 6.4c-.325-1.574-.64-2.56-1.089-2.56H18.548c-.747-.234-.615-1.6-.615-1.6C17.293 0 17.293 0 14.942 0H4.882c-2.31 0-2.31 0-2.31 2.24V6.4c.524.006 38.4 0 38.4 0z" fill="#1055FF" fill-rule="evenodd"/></svg>
